packages/smooth_app/assets/data/target.svg

<svg width="48px" height="48px" viewBox="0 0 29 28" fill="none" xmlns="http://www.w3.org/2000/svg" aria-labelledby="rocketIconTitle" stroke="#000000" stroke-width="1.5" stroke-linecap="round" stroke-linejoin="round" color="#000000"> <title id="rocketIconTitle">Rocket</title> <path d="M12.7526 9.92418C12.2059 10.2861 11.679 10.7057 11.1924 11.1924C10.4754 11.9093 10.4947 11.9482 9.85359 12.682M12.7526 9.92418C16.178 7.65685 20.3848 7.65685 20.3848 7.65685C20.3848 7.65685 20.3848 11.8636 18.1174 15.289M12.7526 9.92418L18.1174 15.289M18.1174 15.289C17.7555 15.8358 17.3359 16.3626 16.8492 16.8492C16.1323 17.5662 16.0934 17.5469 15.3596 18.188M6.11523 17.429C5.74278 17.9526 5.53552 18.2635 5.53552 18.2635L9.77816 22.5061C9.77816 22.5061 10.0891 22.2988 10.6127 21.9264M6.11523 17.429L2.70709 14.0208L8.36394 11.1924L9.85359 12.682M6.11523 17.429C6.83965 16.4105 8.18898 14.5874 9.85359 12.682M10.6127 21.9264L14.0208 25.3345L16.8492 19.6777L15.3596 18.188M10.6127 21.9264C11.6311 21.202 13.4542 19.8526 15.3596 18.188"/> <path d="M5.00003 23C5.35031 21.5825 5.99994 21.0001 6.5 21.5C7.00003 22 6.41751 22.6497 5.00003 23Z"/> </svg>

<svg width="48" height="48" viewBox="0 0 29 28" fill="none" xmlns="http://www.w3.org/2000/svg" aria-labelledby="rocketIconTitle" stroke="#000" stroke-width="1.5" stroke-linecap="round" stroke-linejoin="round" color="#000"><path d="M12.753 9.924c-.547.362-1.074.782-1.56 1.268-.718.717-.698.756-1.34 1.49m2.9-2.758c3.425-2.267 7.632-2.267 7.632-2.267s0 4.207-2.268 7.632m-5.364-5.365 5.364 5.365m0 0a10.02 10.02 0 0 1-1.268 1.56c-.717.717-.756.698-1.49 1.339m-9.244-.759c-.372.524-.58.835-.58.835l4.243 4.242s.311-.207.835-.58M6.115 17.43l-3.408-3.408 5.657-2.829 1.49 1.49m-3.739 4.747a62.503 62.503 0 0 1 3.739-4.747m.759 9.244 3.408 3.409 2.828-5.657-1.49-1.49m-4.746 3.738a62.526 62.526 0 0 0 4.747-3.738M5 23c.35-1.418 1-2 1.5-1.5S6.418 22.65 5 23Z"/></svg>
